!!!OTL: BIN I NET A LUSTIGERFUHRMANNSBUE
!!!ARE: Europa, Mitteleuropa, Deutschland, Nieder - Bayern, Mittel - Franken
!!!SCT: E1574
!!!YEM: Copyright 1995, estate of Helmut Schaffrath.
**kern
*ICvox
*Ivox
*M3/8
*k[b-]
*F:
=1
{16ff
16a
8.cc
16dd
=2
8cc
8b-
8b-
=3
8a
16a
16b-
8cc}
=4
{16ff
16a
8.cc
16dd
=5
8cc
8b-
8b-
=6
4a
8r}
=7
{8g
8.g
16a
=8
8b-
16b-
16a
8g}
=9
{8a
8.a
16b-
=10
8dd
16cc
16bn
8cc}
=11
{16ff
16a
8.cc
16dd
=12
8cc
8b-
8b-
=13
8a
16a
16b-
8cc}
=14
{16ff
16a
8.cc
16dd
=15
8cc
8b-
8b-
=16
4a
8r}
==
!!!AGN: Staende - Lied, Fuhrmann
!!!ONB: ESAC (Essen Associative Code) Database: ERK3
!!!AMT: simple triple
!!!AIN: vox
!!!EED: Helmut Schaffrath
!!!EEV: 1.0
*-
